X:12
T:Jigs 2 - Jump at the Sun
T:Roman Wall
M:6/8
L:1/8
K:G
D | "G"G2G BAG | Bdg "G/B"dBG | "C"c2e "G/B"dBG | "Am"FAA "D"A2D |
"G"G2G BAG | Bdg "G/B"dBG | "C"cde "G/B"dBG | "D"AGF "G"G2 :|
d | "Em"g2g "D"fed | "C"efg "G/B"dBG | "Am"cde "G"dBG | "C"F2A "D"A2d |
"Em"g2g "D"fed | "C"efg "G/B"dBG | "Am"cde "G"dBG | "D"AGF "G"G2 :|
T:Jump at the Sun
K:G
"Em"EGB ^A2B | EGB ^A2B | eBB eBB | BAG "B"F3 |
"E"EGB ^A2B | EGB ^A2B | eBB "Am"cBA | "B7"GAF "Em"E2 :|
"Em"eBB gfe | "B7"fBB agf | "C"gfe gfe | "B"fBB c2B |
"Em"eBB gfe | "B7"fBB agf | "Em"ezB "Am"cBA | "B"GAF "Em"E2 :|
%%newpage

